fs/eye_tracking_16_filled.svg

<svg viewBox="0 0 16 16" fill="none" xmlns="http://www.w3.org/2000/svg" height="1em" width="1em">
  <path d="M2 4C2 2.89543 2.89543 2 4 2H5.5C5.77614 2 6 2.22386 6 2.5C6 2.77614 5.77614 3 5.5 3H4C3.44772 3 3 3.44772 3 4V5.5C3 5.77614 2.77614 6 2.5 6C2.22386 6 2 5.77614 2 5.5V4ZM2 12C2 13.1046 2.89543 14 4 14H5.5C5.77614 14 6 13.7761 6 13.5C6 13.2239 5.77614 13 5.5 13H4C3.44772 13 3 12.5523 3 12V10.5C3 10.2239 2.77614 10 2.5 10C2.22386 10 2 10.2239 2 10.5V12ZM12 2C13.1046 2 14 2.89543 14 4V5.5C14 5.77614 13.7761 6 13.5 6C13.2239 6 13 5.77614 13 5.5V4C13 3.44772 12.5523 3 12 3H10.5C10.2239 3 10 2.77614 10 2.5C10 2.22386 10.2239 2 10.5 2H12ZM14 12C14 13.1046 13.1046 14 12 14H10.5C10.2239 14 10 13.7761 10 13.5C10 13.2239 10.2239 13 10.5 13H12C12.5523 13 13 12.5523 13 12V10.5C13 10.2239 13.2239 10 13.5 10C13.7761 10 14 10.2239 14 10.5V12ZM5.5 9C5.5 7.61929 6.61929 6.5 8 6.5C9.38071 6.5 10.5 7.61929 10.5 9C10.5 10.3807 9.38071 11.5 8 11.5C6.61929 11.5 5.5 10.3807 5.5 9ZM3.31419 7.96422C3.57041 8.06671 3.86118 7.94224 3.96392 7.6862L3.96343 7.68744L3.9685 7.67583C3.97386 7.66382 3.98322 7.64355 3.99691 7.61617C4.02431 7.56136 4.06887 7.47852 4.13324 7.37689C4.2622 7.17327 4.46881 6.89715 4.77372 6.61996C5.37541 6.07298 6.38244 5.5 7.99989 5.5C9.61734 5.5 10.6244 6.07298 11.2261 6.61996C11.531 6.89715 11.7376 7.17327 11.8665 7.37689C11.9309 7.47852 11.9755 7.56136 12.0029 7.61617C12.0166 7.64355 12.0259 7.66382 12.0313 7.67583C12.0313 7.67583 12.2755 8.12825 12.6856 7.96422C12.942 7.86167 13.0667 7.57068 12.9641 7.31429C12.857 7.0911 12.9636 7.31308 12.9636 7.31308L12.9631 7.31164L12.9616 7.30806L12.9575 7.29819C12.9542 7.29042 12.9498 7.2803 12.9443 7.26799C12.9333 7.24338 12.9178 7.20994 12.8973 7.16896C12.8563 7.08705 12.7954 6.97458 12.7114 6.84184C12.5434 6.57671 12.2813 6.22783 11.8987 5.88002C11.1254 5.17702 9.88244 4.5 7.99989 4.5C6.11734 4.5 4.87436 5.17702 4.10105 5.88002C3.71846 6.22783 3.45633 6.57671 3.28842 6.84184C3.20434 6.97458 3.14344 7.08705 3.10248 7.16896C3.08199 7.20994 3.06644 7.24338 3.05545 7.26799C3.04995 7.2803 3.04558 7.29042 3.0423 7.29819L3.03818 7.30806L3.03596 7.31308L3.03565 7.31429C2.93309 7.57068 3.0578 7.86167 3.31419 7.96422Z" fill="#212121"/>
</svg>

<svg viewBox="0 0 16 16" fill="none" xmlns="http://www.w3.org/2000/svg" height="1em" width="1em">
  <path d="M2 4a2 2 0 0 1 2-2h1.5a.5.5 0 0 1 0 1H4a1 1 0 0 0-1 1v1.5a.5.5 0 0 1-1 0V4Zm0 8a2 2 0 0 0 2 2h1.5a.5.5 0 0 0 0-1H4a1 1 0 0 1-1-1v-1.5a.5.5 0 0 0-1 0V12ZM12 2a2 2 0 0 1 2 2v1.5a.5.5 0 0 1-1 0V4a1 1 0 0 0-1-1h-1.5a.5.5 0 0 1 0-1H12Zm2 10a2 2 0 0 1-2 2h-1.5a.5.5 0 0 1 0-1H12a1 1 0 0 0 1-1v-1.5a.5.5 0 0 1 1 0V12ZM5.5 9a2.5 2.5 0 1 1 5 0 2.5 2.5 0 0 1-5 0ZM3.314 7.964a.5.5 0 0 0 .65-.278v.001l.005-.011.028-.06c.027-.055.072-.137.136-.24a3.73 3.73 0 0 1 .64-.756C5.376 6.073 6.384 5.5 8 5.5c1.617 0 2.624.573 3.226 1.12.305.277.512.553.64.757a2.752 2.752 0 0 1 .165.299s.244.452.655.288a.5.5 0 0 0 .278-.65c-.107-.223 0 0 0 0v-.002l-.002-.004-.005-.01a1.809 1.809 0 0 0-.06-.129 3.783 3.783 0 0 0-.186-.327 4.733 4.733 0 0 0-.812-.962c-.774-.703-2.017-1.38-3.9-1.38-1.882 0-3.125.677-3.898 1.38a4.73 4.73 0 0 0-.813.962 3.753 3.753 0 0 0-.246.456l-.004.01-.002.005v.001a.5.5 0 0 0 .278.65Z" fill="#212121"/>
</svg>
